icon-themes/breeze_svg/cmd/lc_alphalowliststyle.svg

<svg viewBox="0 0 24 24" xmlns="http://www.w3.org/2000/svg"><path d="m11 3v1h9v-1zm0 2v1h6v-1zm0 4v1h9v-1zm0 2v1h2v-1zm0 4v1h9v-1zm0 2v1h6v-1zm7 1v1h2v-1z" fill="#4d4d4d"/><g fill="#1d99f3"><path d="m5.5 3c-1.3807119 0-2.5 1.1192881-2.5 2.5s1.1192881 2.5 2.5 2.5c.5413714-.0011264 1.067749-.1779563 1.5-.5039062v.5039062h1v-2.5-2.5h-1v.5019531c-.4324959-.3252525-.9588516-.5013898-1.5-.5019531zm0 1c.8284271 0 1.5.6715729 1.5 1.5s-.6715729 1.5-1.5 1.5-1.5-.6715729-1.5-1.5.6715729-1.5 1.5-1.5z"/><path d="m3 13v7h1v-.501953c.4324959.325252.9588516.50139 1.5.501953 1.3807119 0 2.5-1.119288 2.5-2.5s-1.1192881-2.5-2.5-2.5c-.5413714.001126-1.067749.177956-1.5.503906v-2.503906zm2.5 3c.8284271 0 1.5.671573 1.5 1.5s-.6715729 1.5-1.5 1.5-1.5-.671573-1.5-1.5.6715729-1.5 1.5-1.5z"/></g></svg>

<svg viewBox="0 0 24 24" xmlns="http://www.w3.org/2000/svg">
  <path
     style="fill:#4d4d4d"
     d="m 11,3 v 1 h 9 V 3 Z m 0,2 v 1 h 6 V 5 Z m 0,4 v 1 h 9 V 9 Z m 0,2 v 1 h 2 v -1 z m 0,4 v 1 h 9 v -1 z m 0,2 v 1 h 6 v -1 z m 7,1 v 1 h 2 v -1 z"
     />
  <path
     style="fill:#1d99f3"
     d="M 5.5,3 C 4.1192881,3 3,4.1192881 3,5.5 3,6.8807119 4.1192881,8 5.5,8 6.0413714,7.9988736 6.567749,7.8220437 7,7.4960938 V 8 H 8 V 5.5 3 H 7 V 3.5019531 C 6.5675041,3.1767006 6.0411484,3.0005633 5.5,3 Z m 0,1 C 6.3284271,4 7,4.6715729 7,5.5 7,6.3284271 6.3284271,7 5.5,7 4.6715729,7 4,6.3284271 4,5.5 4,4.6715729 4.6715729,4 5.5,4 Z"
     />
  <path
     style="fill:#1d99f3"
     d="m 3,13 v 7 H 4 V 19.498047 C 4.4324959,19.823299 4.9588516,19.999437 5.5,20 6.8807119,20 8,18.880712 8,17.5 8,16.119288 6.8807119,15 5.5,15 4.9586286,15.001126 4.432251,15.177956 4,15.503906 V 13 Z m 2.5,3 C 6.3284271,16 7,16.671573 7,17.5 7,18.328427 6.3284271,19 5.5,19 4.6715729,19 4,18.328427 4,17.5 4,16.671573 4.6715729,16 5.5,16 Z"
     />
</svg>
